dist/img/buy.svg

<svg width="48" height="49" viewBox="0 0 48 49" fill="none" xmlns="http://www.w3.org/2000/svg">
<path d="M35 23C27.832 23 22 28.832 22 36C22 43.168 27.832 49 35 49C42.168 49 48 43.168 48 36C48 28.832 42.168 23 35 23ZM34.75 34.5H35.25C37.318 34.5 39 36.182 39 38.25C39 39.876 37.952 41.252 36.5 41.77V42.5C36.5 43.328 35.828 44 35 44C34.172 44 33.5 43.328 33.5 42.5V42H32.5C31.672 42 31 41.328 31 40.5C31 39.672 31.672 39 32.5 39H35.25C35.664 39 36 38.664 36 38.25C36 37.836 35.664 37.5 35.25 37.5H34.75C32.682 37.5 31 35.818 31 33.75C31 32.124 32.048 30.748 33.5 30.23V29.5C33.5 28.672 34.172 28 35 28C35.828 28 36.5 28.672 36.5 29.5V30H37.5C38.328 30 39 30.672 39 31.5C39 32.328 38.328 33 37.5 33H34.75C34.336 33 34 33.336 34 33.75C34 34.164 34.336 34.5 34.75 34.5Z" fill="#F7A804"/>
<path d="M34 12.916V5.00004C34 3.89404 33.104 3.00004 32 3.00004C30.896 3.00004 30 3.89404 30 5.00004V9.00404L22.398 1.57004C21.62 0.808035 20.378 0.808035 19.602 1.57004L0.878 19.874C0.32 20.438 0 21.212 0 22C0 23.654 1.346 25 3 25H6V36C6 38.758 8.244 41 11 41H16C17.104 41 18 40.106 18 39C18 37.894 17.104 37 16 37H11C10.448 37 10 36.55 10 36V23C10 21.894 9.104 21 8 21H5.446L21 5.79604L34.102 18.608C34.894 19.382 36.158 19.368 36.93 18.576C37.702 17.786 37.688 16.52 36.898 15.748L34 12.916Z" fill="#3B3C45"/>
</svg>

<svg width="48" height="49" viewBox="0 0 48 49" fill="none" xmlns="http://www.w3.org/2000/svg"><path d="M35 23c-7.17 0-13 5.83-13 13s5.83 13 13 13 13-5.83 13-13-5.83-13-13-13zm-.25 11.5h.5a3.75 3.75 0 011.25 7.27v.73a1.5 1.5 0 01-3 0V42h-1a1.5 1.5 0 010-3h2.75a.75.75 0 000-1.5h-.5a3.75 3.75 0 01-1.25-7.27v-.73a1.5 1.5 0 013 0v.5h1a1.5 1.5 0 010 3h-2.75a.75.75 0 000 1.5z" fill="#F7A804"/><path d="M34 12.92V5a2 2 0 10-4 0v4l-7.6-7.43a2 2 0 00-2.8 0L.88 19.87A3 3 0 003 25h3v11a5 5 0 005 5h5a2 2 0 100-4h-5a1 1 0 01-1-1V23a2 2 0 00-2-2H5.45L21 5.8l13.1 12.8a2 2 0 102.8-2.85L34 12.92z" fill="#3B3C45"/></svg>
